src/icons/smile.svg

<svg width="45" height="45" viewBox="0 0 45 45" fill="none" xmlns="http://www.w3.org/2000/svg">
<path d="M22.5 45C28.4674 45 34.1903 42.6295 38.4099 38.4099C42.6295 34.1903 45 28.4674 45 22.5C45 16.5326 42.6295 10.8097 38.4099 6.5901C34.1903 2.37053 28.4674 0 22.5 0C16.5326 0 10.8097 2.37053 6.5901 6.5901C2.37053 10.8097 0 16.5326 0 22.5C0 28.4674 2.37053 34.1903 6.5901 38.4099C10.8097 42.6295 16.5326 45 22.5 45ZM14.4229 28.6084C15.9961 30.4277 18.6855 32.3438 22.5 32.3438C26.3145 32.3438 29.0039 30.4277 30.5771 28.6084C31.0869 28.0195 31.9746 27.958 32.5635 28.4678C33.1523 28.9775 33.2139 29.8652 32.7041 30.4541C30.7441 32.7041 27.3428 35.1562 22.5 35.1562C17.6572 35.1562 14.2559 32.7041 12.2959 30.4541C11.7861 29.8652 11.8477 28.9775 12.4365 28.4678C13.0254 27.958 13.9131 28.0195 14.4229 28.6084ZM12.6914 18.2812C12.6914 17.5353 12.9877 16.82 13.5152 16.2925C14.0426 15.7651 14.758 15.4688 15.5039 15.4688C16.2498 15.4688 16.9652 15.7651 17.4926 16.2925C18.0201 16.82 18.3164 17.5353 18.3164 18.2812C18.3164 19.0272 18.0201 19.7425 17.4926 20.27C16.9652 20.7974 16.2498 21.0938 15.5039 21.0938C14.758 21.0938 14.0426 20.7974 13.5152 20.27C12.9877 19.7425 12.6914 19.0272 12.6914 18.2812ZM29.5664 15.4688C30.3123 15.4688 31.0277 15.7651 31.5551 16.2925C32.0826 16.82 32.3789 17.5353 32.3789 18.2812C32.3789 19.0272 32.0826 19.7425 31.5551 20.27C31.0277 20.7974 30.3123 21.0938 29.5664 21.0938C28.8205 21.0938 28.1051 20.7974 27.5777 20.27C27.0502 19.7425 26.7539 19.0272 26.7539 18.2812C26.7539 17.5353 27.0502 16.82 27.5777 16.2925C28.1051 15.7651 28.8205 15.4688 29.5664 15.4688Z" fill="#FFB801"/>
</svg>

<svg xmlns="http://www.w3.org/2000/svg" width="45" height="45" fill="none">
  <path fill="#FFB801" d="M22.5 45a22.5 22.5 0 1 0 0-45 22.5 22.5 0 0 0 0 45Zm-8.077-16.392c1.573 1.82 4.263 3.736 8.077 3.736s6.504-1.916 8.077-3.736a1.407 1.407 0 0 1 1.986-.14c.59.51.65 1.397.141 1.986-1.96 2.25-5.361 4.702-10.204 4.702-4.843 0-8.244-2.452-10.204-4.702a1.407 1.407 0 0 1 .14-1.986 1.407 1.407 0 0 1 1.987.14ZM12.69 18.281a2.812 2.812 0 1 1 5.625 0 2.812 2.812 0 0 1-5.625 0Zm16.875-2.812a2.813 2.813 0 1 1 0 5.625 2.813 2.813 0 0 1 0-5.625Z"/>
</svg>
